img/comment-light.svg

<svg width="15" height="15" viewBox="0 0 15 15" fill="none" xmlns="http://www.w3.org/2000/svg">
<g opacity="0.4">
<path fill-rule="evenodd" clip-rule="evenodd" d="M11.1346 12V15L8.36064 12H2.25C1.42157 12 0.75 11.3284 0.75 10.5V3C0.75 2.17157 1.42157 1.5 2.25 1.5H12.75C13.5784 1.5 14.25 2.17157 14.25 3V10.5C14.25 11.3284 13.5784 12 12.75 12H11.1346Z" fill="white"/>
</g>
</svg>

<svg width="15" height="15" fill="none" xmlns="http://www.w3.org/2000/svg"><path fill-rule="evenodd" clip-rule="evenodd" d="M11.135 12v3L8.36 12H2.25a1.5 1.5 0 01-1.5-1.5V3a1.5 1.5 0 011.5-1.5h10.5a1.5 1.5 0 011.5 1.5v7.5a1.5 1.5 0 01-1.5 1.5h-1.615z" fill="#fff" opacity=".4"/></svg>
